X: 1455
T: Nerelerde Kaldın Ey Servinâzım
C: Hakkı Bey (Sermüezzin)
O: Turkey
F: http://compmusic.upf.edu/node/140
N: nihavent--sarki--turkaksagi--nerelerde_kaldin--sermuezzin_hakki_bey
N: makam= nihavent
N: form= sarki
N: usul= turkaksagi = 5/8
M: 5/8
L: 1/16
K: C _B _e  
Q: 1/4=120
%%MIDI tuningsystem comma53
F4 B2d2 f2 | _1/4ef gef6  | f2e2 d4 c2 | \
w:  ARANAĞME  |   |   | 
BA BGF4z2  | F4 B2d2 f2 | 
w:   |   | 
_1/4ef gef6  | g2f2 e4 d2 | ^cd ecd4z2  | \
w:   |   |   | 
e3d c4 e2 | d3/2e/ dcB2 A2G2  | 
w:   |   | 
ABAB d2c2 BA | AG G^FGA Bcd2  | e3d c4 e2 | 
w:   |   |   | 
d3/2e/ dcB2 A2G2  | ABAB d2c2 BA | AG G^FG4z2  | 
w:   |   |   | 
G2d2 d4 d2 | fe dcd4z2  | dede f2g2 {a}gf | \
w:  Ne re ler de   |  kal *  *  *  dın   |  ey  *  *  *  ser *  *  vi  | 
fe eddc BAG2  | 
w:  nâ *  *  *  zım    | 
G2d2 d4 d2 | fe dcd4z2  | dede f2g2 {a}gf | \
w:  Ne re ler de   |  kal *  *  *  dın   |  ey  *  *  *  ser *  *  vi  | 
fe edd4z2  | 
w:  nâ *  *  *  zım    | 
d2f2 f4 _1/4e2 | f2 {g}fggf edc2  | dede f2g2 {a}gf | \
w:  Ba na  bir  ha  |  ber  *  *  *  ver   |  bu *  *  *  dur  *  *  ni  | 
fe eddc BAB2  | 
w:  ya *  *  *  zım    | 
c2d2 d4 {e}dc | c3edc BAG2  | ABAB d2B2 BA | \
w:  Ba na  bir  *  ha  |  ber  *  ver   |  bu *  *  *  dur  *  ni  | 
AG G^FG4z2  | 
w:  ya *  *  *  zım    | 
f2g2 g4 g2 | fg ag{a}g4z2  | g3f f4 f_1/4e | \
w:  Has re tin den   |  a *  *  *  *  cep   |  öl *  mek  mi   | 
_1/4ed c2g4z2  | g2a2 a4 ag | 
w:  lâ *  *  zım    |  Has re tin den   | 
gf gbag fedc  | a3g {d'}c'bag gf | fe edd4z2  | 
w:  a *  *  *  cep   |  öl *  *  mek  *  *  *  mi   |  lâ *  *  *  zım    | 
d2f2 f4 _1/4e2 | f2 {g}fggf edc2  | dede f2g2 {a}gf | \
w:  Ba na  bir  ha  |  ber  *  *  *  ver   |  bu *  *  *  dur  *  *  ni  | 
fe eddc BAB2  | 
w:  ya *  *  *  zım    | 
c2d2 d4 {e}dc | c3edc BAG2  | ABAB d2B2 BA | \
w:  Ba na  bir  *  ha  |  ber  *  ver   |  bu *  *  *  dur  *  ni  | 
AG G^FG4z2  | 
w:  ya *  *  *  zım    | 
|


